X: 9
T: O'Keeffe's
Z: Benjamin Glauser
S: https://thesession.org/tunes/53#setting46168
R: slide
M: 12/8
L: 1/8
K: Ador
G|:A2ee2A BAB d2B|A2ee2dB2G GFG|
A2ee2A BAB d3|1 BABd2eB2AA2G:|2 BABd2eB2AA2d|
|:e2a a2ba2ge2d|e2aa2ba2ge2f|
g2fg2e dBAG3|1 BABd2eB2AA2d:|2 BABd2eB2AA2z||

